X:1
T: Ashlimo
C:Bruce Shawyer
R:Reel
Q:232
K:E
M:4/4
L:1/16
|:"E"E2G2B2G2 "A7"A2c2e2c2|"E"B2G2E2G2 "B7"A2F2D2B,2|"E"E2G2B2G2 "A7"A2c2e2c2|"E"B2G2 "B7"A2F2 "E"E4E4|
"E"E2G2B2G2 "A7"A2c2e2c2|"E"B2G2E2G2 "B7"A2F2D2B,2|"E"E2G2B2G2 "A7"A2c2e2c2|"E"B2G2 "B7"A2F2 "E"E4E4|
"E"e2B2G2B2 "A7"e2c2A2c2|"E"B2G2E2G2 "B7"A2F2D2B,2|"E"e2B2G2B2 "A7"e2c2A2c2|"E"B2G2 "B7"A2F2 "E"E4E4|"E"e2B2G2B2 "A7"e2c2A2c2|
"E"B2G2E2G2 "B7"A2F2D2B,2|1"E"e2B2G2B2 "A"e2c2A2c2|"E"B2G2 "B7"A2F2 "E"E4E4:|2"E"E2G2B2G2 "A"A2c2e2c2|"E"B2G2 "B7"A2F2 "E"E4E4||
